Obsidian/actions/22s/view-right-close.svg

<svg height="22" viewBox="0 0 22 22" width="22" xmlns="http://www.w3.org/2000/svg"><path d="m0 1v14c5.3333-.002 10.667.005906 16 .003906v-13.9999998c-5.333.0019001-10.667-.0059062-16-.0039062zm7 2v10.003906l-5 .001953v-10.0019528zm3.5 2 1.5 1.5 1.5-1.5 1.5 1.5-1.5 1.5 1.5 1.5-1.5 1.5-1.5-1.5-1.5 1.5-1.5-1.5 1.5-1.5-1.5-1.5z" fill="#bebebe" transform="translate(3 3)"/></svg>

<svg xmlns="http://www.w3.org/2000/svg" width="22" height="22" viewBox="0 0 22 22">
 <defs>
  <style id="current-color-scheme" type="text/css">
   .ColorScheme-Text { color:#bebebe; } .ColorScheme-Highlight { color:#4285f4; }
  </style>
 </defs>
 <path style="fill:currentColor" class="ColorScheme-Text" d="M 0 1 L 0 15 C 5.3333 14.998 10.667 15.005906 16 15.003906 L 16 1.0039062 C 10.667 1.0058063 5.333 0.998 0 1 z M 7 3 L 7 13.003906 L 2 13.005859 L 2 3.0039062 L 7 3 z M 10.5 5 L 12 6.5 L 13.5 5 L 15 6.5 L 13.5 8 L 15 9.5 L 13.5 11 L 12 9.5 L 10.5 11 L 9 9.5 L 10.5 8 L 9 6.5 L 10.5 5 z" transform="translate(3 3)"/>
</svg>
